assets/brands/ayroui.svg

<svg width="158" height="40" viewBox="0 0 158 40" fill="none" xmlns="http://www.w3.org/2000/svg">
<g clip-path="url(#clip0_2001_9537)">
<path opacity="0.56" d="M15.6061 3.33333C15.6061 1.49167 17.1083 0 18.963 0H20.6415C31.7655 0 40.7831 8.95417 40.7831 20V36.6667C40.7831 38.5083 39.2809 40 37.4262 40H35.7477C24.6237 40 15.6061 31.0458 15.6061 20V3.33333Z" fill="#4A6CF7"/>
<path opacity="0.88" d="M17.2847 39.9998C26.5546 39.9998 34.0694 32.5379 34.0694 23.3332C34.0694 14.1284 26.5546 6.6665 17.2847 6.6665C8.01476 6.6665 0.5 14.1284 0.5 23.3332C0.5 32.5379 8.01476 39.9998 17.2847 39.9998Z" fill="#4A6CF7"/>
<path d="M63.7375 31.7787H69.3377L61.4753 10H55.3531L47.497 31.7787H53.0331L54.3347 27.9317H62.4354L63.7375 31.7787ZM61.0759 23.8366H55.727L58.3819 15.8635L61.0759 23.8366ZM79.675 25.2947L75.6857 14.4674H69.7762L76.8006 31.1893L72.8373 40H78.534L89.361 14.4674H83.6383L79.675 25.2947ZM96.5596 23.7435C96.5596 20.7652 98.016 19.8966 100.523 19.8966H101.973V14.2813C99.653 14.2813 97.7647 15.5223 96.5596 17.3526V14.4674H91.2686V31.7787H96.5596V23.7435ZM121.391 23.123C121.391 17.6318 117.498 14.2193 112.42 14.2193C107.38 14.2193 103.449 17.6318 103.449 23.123C103.449 28.6143 107.29 32.0269 112.362 32.0269C117.434 32.0269 121.391 28.6143 121.391 23.123ZM108.837 23.123C108.837 20.1758 110.506 18.8108 112.42 18.8108C114.276 18.8108 116.01 20.1758 116.01 23.123C116.01 26.0393 114.25 27.4354 112.362 27.4354C110.441 27.4354 108.837 26.0393 108.837 23.123ZM132.849 23.8056C132.849 29.4209 136.497 31.9959 140.956 31.9959C145.41 31.9959 149.09 29.4209 149.09 23.8056V10.1551H146.273V23.8366C146.273 27.8077 144.172 29.514 140.982 29.514C137.799 29.514 135.665 27.8077 135.665 23.8366V10.1551H132.849V23.8056ZM153.788 31.7787H156.598V10.1551H153.788V31.7787Z" fill="#2D2D2D"/>
</g>
<defs>
<clipPath id="clip0_2001_9537">
<rect width="157" height="40" fill="white" transform="translate(0.5)"/>
</clipPath>
</defs>
</svg>

<svg xmlns="http://www.w3.org/2000/svg" width="158" height="40" fill="none"><g clip-path="url(#a)"><path fill="#4A6CF7" d="M15.606 3.333C15.606 1.492 17.108 0 18.963 0h1.678c11.125 0 20.142 8.954 20.142 20v16.667c0 1.841-1.502 3.333-3.357 3.333h-1.678c-11.124 0-20.142-8.954-20.142-20V3.333Z" opacity=".56"/><path fill="#4A6CF7" d="M17.285 40c9.27 0 16.784-7.462 16.784-16.667 0-9.205-7.514-16.666-16.784-16.666S.5 14.127.5 23.332 8.015 40 17.285 40Z" opacity=".88"/><path fill="#2D2D2D" d="M63.737 31.779h5.6L61.476 10h-6.122l-7.856 21.779h5.536l1.302-3.847h8.1l1.302 3.847Zm-2.661-7.942h-5.349l2.655-7.973 2.694 7.973Zm18.599 1.458-3.99-10.828h-5.909l7.025 16.722L72.837 40h5.697l10.827-25.533h-5.723l-3.963 10.828Zm16.885-1.552c0-2.978 1.456-3.846 3.963-3.846h1.45V14.28c-2.32 0-4.208 1.241-5.413 3.072v-2.886h-5.291V31.78h5.29v-8.035Zm24.831-.62c0-5.491-3.893-8.904-8.971-8.904-5.04 0-8.971 3.413-8.971 8.904s3.841 8.904 8.913 8.904 9.029-3.413 9.029-8.904Zm-12.554 0c0-2.947 1.669-4.312 3.583-4.312 1.856 0 3.59 1.365 3.59 4.312 0 2.916-1.76 4.312-3.648 4.312-1.921 0-3.525-1.396-3.525-4.312Zm24.012.683c0 5.615 3.648 8.19 8.107 8.19 4.454 0 8.134-2.575 8.134-8.19v-13.65h-2.817v13.68c0 3.972-2.101 5.678-5.291 5.678-3.183 0-5.317-1.706-5.317-5.677V10.155h-2.816v13.65Zm20.939 7.973h2.81V10.155h-2.81V31.78Z"/></g><defs><clipPath id="a"><path fill="#fff" d="M.5 0h157v40H.5z"/></clipPath></defs></svg>
